src/layout/sidebar/img/logo.svg

<?xml version="1.0" encoding="UTF-8" standalone="no"?>
<svg width="526px" height="488px" viewBox="0 0 526 488" version="1.1" xmlns="http://www.w3.org/2000/svg" xmlns:xlink="http://www.w3.org/1999/xlink">
    <!-- Generator: Sketch 42 (36781) - http://www.bohemiancoding.com/sketch -->
    <title>wip-logo</title>
    <desc>Created with Sketch.</desc>
    <defs></defs>
    <g id="Page-1" stroke="none" stroke-width="1" fill="none" fill-rule="evenodd">
        <g id="wip-logo" fill-rule="nonzero">
            <g id="Layer_2">
                <g id="Layer_1-2">
                    <path d="M234.33,113.46 C239.281963,108.979678 244.687899,105.028284 250.46,101.67 L252.22,100.77 L253.98,101.62 C260.264063,105.278519 266.111641,109.639879 271.41,114.62 C276.559615,106.043031 283.009784,98.3176716 290.53,91.72 C283.962197,71.4398128 270.379017,54.1656667 252.22,43 C234.480948,53.9040614 221.09402,70.6465611 214.36,90.35 C222.199594,96.9460654 228.940429,104.746801 234.33,113.46 L234.33,113.46 Z" id="Shape" fill="#95BAA5"></path>
                    <path d="M296.31,87 C305.045788,80.4439363 314.831598,75.4191564 325.25,72.14 C319.724762,53.8432049 308.490431,37.7941606 293.19,26.34 C283.540225,31.1024762 274.832981,37.5736186 267.49,45.44 C280.608047,56.496253 290.553832,70.8386135 296.31,87 L296.31,87 Z" id="Shape" fill="#95BAA5"></path>
                    <path d="M243.67,40.25 C245.86,38.71 248.12,37.25 250.46,35.89 L252.22,34.89 L253.98,35.89 C256.746667,37.4966667 259.413333,39.23 261.98,41.09 C267.204681,35.4054281 273.093567,30.3693229 279.52,26.09 C272.385496,15.545313 263.077079,6.64946713 252.22,2.13162821e-14 C241.673318,6.46888642 232.58754,15.060872 225.54,25.23 C232.175922,29.4749132 238.26491,34.5194031 243.67,40.25 L243.67,40.25 Z" id="Shape" fill="#95BAA5"></path>
                    <path d="M208.54,85.83 C214.525692,69.6684816 224.716377,55.397379 238.06,44.49 C230.903013,37.0397697 222.504467,30.8914381 213.24,26.32 C197.939569,37.7741606 186.705238,53.8232049 181.18,72.12 C190.971708,75.2043271 200.208018,79.8326094 208.54,85.83 L208.54,85.83 Z" id="Shape" fill="#95BAA5"></path>
                    <path d="M355.5,136.62 C356.529932,114.895814 349.624072,93.5384729 336.07,76.53 C310.939648,81.7462583 289.251221,97.4855685 276.5,119.76 C284.298661,128.280185 290.512899,138.124757 294.85,148.83 C313.186751,138.235201 334.491997,133.94605 355.5,136.62 Z" id="Shape" fill="#95BAA5"></path>
                    <path d="M209.76,148.36 C214.32813,137.280881 220.912988,127.145897 229.18,118.47 C216.322519,96.8554744 194.975576,81.637205 170.35,76.53 C156.81238,93.5129589 149.904062,114.834928 150.91,136.53 C171.284628,134.137741 191.892475,138.280321 209.76,148.36 Z" id="Shape" fill="#95BAA5"></path>
                    <path d="M251.81,108.53 C235.269148,118.685798 222.476707,133.941969 215.36,152 C227.869473,160.341433 238.244768,171.504551 245.65,184.59 C248.331837,189.34815 250.571232,194.342438 252.34,199.51 C254.101308,194.3732 256.330671,189.409017 259,184.68 L259,184.62 C263.277836,177.071647 268.555537,170.135624 274.69,164 C278.916398,159.780054 283.530014,155.966622 288.47,152.61 C281.412131,134.295448 268.531417,118.807672 251.81,108.53 L251.81,108.53 Z" id="Shape" fill="#95BAA5"></path>
                    <path d="M252.1,237.14 C248.989493,242.037077 245.387512,246.604053 241.35,250.77 L241.35,271.63 L262.35,271.63 L262.35,250.25 C258.455146,246.275899 255.0171,241.878554 252.1,237.14 L252.1,237.14 Z" id="Shape" fill="#F9F9F9"></path>
                    <path d="M292.58,186.83 C308.122965,186.864658 322.524192,194.997561 330.58,208.29 C331.12,209.37 331.71,210.43 332.33,211.43 C338.864954,222.023855 350.107511,228.816265 362.525291,229.673074 C374.943071,230.529883 387.01198,225.34593 394.94,215.75 C384.955684,247.391319 355.5992,268.898628 322.42,268.88 C321.13,268.88 319.78,268.88 318.29,268.76 C293.702087,267.400949 271.292649,254.225063 258.15,233.4 L252.19,224 L246.27,233.37 C233.125072,254.191244 210.71602,267.363176 186.13,268.72 C184.93,268.78 183.62,268.81 182,268.81 C148.838013,268.831147 119.490952,247.348013 109.49,215.73 C117.419531,225.324952 129.489447,230.507175 141.907299,229.648377 C154.32515,228.78958 165.566783,221.995171 172.1,211.4 C172.72,210.4 173.31,209.35 173.85,208.26 C181.905808,194.967561 196.307035,186.834658 211.85,186.8 C225.482413,186.757266 238.364682,193.035895 246.73,203.8 L252.24,210.8 L257.75,203.8 C266.115318,193.035895 278.997587,186.757266 292.63,186.8" id="Shape" fill="#37895A"></path>
                    <path d="M166.55,207.74 C167.110375,206.833322 167.624369,205.898787 168.09,204.94 C175.185389,192.973922 186.83877,184.404866 200.37596,181.199236 C213.913149,177.993605 228.171844,180.426635 239.88,187.94 C220.239763,153.35527 180.073556,135.954129 141.41,145.28 C135.382605,170.547137 140.630186,197.186453 155.79,218.28 C160.166343,215.675621 163.855782,212.061616 166.55,207.74 Z" id="Shape" fill="#95BAA5"></path>
                    <path d="M293,179.83 C311.10561,179.824296 327.871796,189.368592 337.11,204.94 C337.575722,205.89874 338.089714,206.833271 338.65,207.74 C341.372677,212.128135 345.119995,215.789664 349.57,218.41 C364.783509,197.28304 370.050777,170.581679 364,145.26 C325.419271,135.962425 285.335754,153.271494 265.65,187.73 C273.831998,182.554016 283.318283,179.813919 293,179.83 Z" id="Shape" fill="#95BAA5"></path>
                    <path d="M0,338.68 L39.37,338.68 C73.79,338.68 96,361.5 96,397.07 C96,432.64 73.75,455.45 39.33,455.45 L0,455.45 L0,338.68 Z M38.6,437.76 C63.13,437.76 76.25,421.98 76.25,397.06 C76.25,371.96 63.13,356.17 38.6,356.17 L19.78,356.17 L19.78,437.75 L38.6,437.76 Z" id="Shape" fill="#F9F9F9"></path>
                    <path d="M159.36,401.44 C159.36,391.93 151.75,386.44 139.96,386.44 C130.83,386.44 123.42,389.29 116.57,393.86 L116.57,376.36 C122.09,372.36 132.73,369.13 143.38,369.13 C165.25,369.13 177.61,380.92 177.61,400.13 L177.61,455.47 L159.36,455.47 L159.36,450.7 C156.51,453.55 148.14,456.98 138.63,456.98 C121.32,456.98 107.06,446.71 107.06,429.4 C107.06,413.4 121.32,402.21 139.96,402.21 C147.57,402.21 155.96,404.87 159.36,407.34 L159.36,401.44 Z M159.36,425.97 C157.27,420.65 149.85,417.41 142.24,417.41 C133.68,417.41 124.74,421.02 124.74,429.41 C124.74,437.97 133.68,441.58 142.24,441.58 C149.85,441.58 157.24,438.35 159.36,433.02 L159.36,425.97 Z" id="Shape" fill="#F9F9F9"></path>
                    <path d="M216.79,487.78 L197.79,487.78 L197.79,371 L216.79,371 L216.79,378.23 C220.59,373.48 228.96,369.1 238.28,369.1 C263,369.1 277.45,389.64 277.45,413.22 C277.45,436.8 263,457.35 238.28,457.35 C228.96,457.35 220.59,452.98 216.79,448.22 L216.79,487.78 Z M216.79,429.21 C220.273225,436.071186 227.305323,440.403978 235,440.43 C249.64,440.43 258.39,428.83 258.39,413.24 C258.39,397.65 249.69,386 235,386 C227.287315,386.007251 220.231399,390.342814 216.74,397.22 L216.79,429.21 Z" id="Shape" fill="#F9F9F9"></path>
                    <path d="M313,487.78 L294,487.78 L294,371 L313,371 L313,378.23 C316.8,373.48 325.17,369.1 334.49,369.1 C359.21,369.1 373.66,389.64 373.66,413.22 C373.66,436.8 359.21,457.34 334.49,457.34 C325.17,457.34 316.8,452.97 313,448.21 L313,487.78 Z M313,429.21 C316.491399,436.087186 323.547315,440.422749 331.26,440.43 C345.9,440.43 354.65,428.83 354.65,413.24 C354.65,397.65 345.91,386 331.27,386 C323.544871,386.011128 316.481956,390.364079 313,397.26 L313,429.21 Z" id="Shape" fill="#F9F9F9"></path>
                    <path d="M404.48,417.42 C405.81,434 417,441 430.53,441 C440.04,441 446.69,438.72 454.68,433.2 L454.68,449.94 C447.45,455.26 438.52,457.36 427.87,457.36 C403.15,457.35 386,440.62 386,414 C386,387.57 402.16,369.12 424.79,369.12 C448.18,369.12 460.35,385.85 460.35,410.58 L460.35,417.43 L404.48,417.42 Z M405.62,403 L442.32,403 C441.75,392.73 435.85,385.12 425.01,385.12 C416.65,385.09 408.47,390 405.62,403 Z" id="Shape" fill="#F9F9F9"></path>
                    <path d="M525.61,390.22 C522.95,388.32 518.38,387.37 514.39,387.37 C506.59,387.37 499.39,391.74 497.46,400.87 L497.46,455.45 L478.46,455.45 L478.46,371 L497.46,371 L497.46,379.75 C500.69,373.47 508.11,369.1 516.29,369.1 C520.47,369.1 524.29,369.86 525.61,370.62 L525.61,390.22 Z" id="Shape" fill="#F9F9F9"></path>
                </g>
            </g>
        </g>
    </g>
</svg>

<svg xmlns="http://www.w3.org/2000/svg" viewBox="0 0 525.61 487.78"><defs><style>.cls-1{fill:#49b778;}.cls-2{fill:#37895a;}.cls-3{fill:#f9f9f9;}</style></defs><title>Asset 2</title><g id="Layer_2" data-name="Layer 2"><g id="Layer_1-2" data-name="Layer 1"><path class="cls-1" d="M234.33,113.46a96,96,0,0,1,16.13-11.79l1.76-.9,1.76.85a95.9,95.9,0,0,1,17.43,13,96.64,96.64,0,0,1,19.12-22.9A89.6,89.6,0,0,0,252.22,43a89.59,89.59,0,0,0-37.86,47.35A96.64,96.64,0,0,1,234.33,113.46Z"/><path class="cls-1" d="M296.31,87a96.46,96.46,0,0,1,28.94-14.86,89.55,89.55,0,0,0-32.06-45.8,89.1,89.1,0,0,0-25.7,19.1A96.85,96.85,0,0,1,296.31,87Z"/><path class="cls-1" d="M243.67,40.25c2.19-1.54,4.45-3,6.79-4.36l1.76-1,1.76,1q4.15,2.41,8,5.2a96.37,96.37,0,0,1,17.54-15A89.23,89.23,0,0,0,252.22,0a89.21,89.21,0,0,0-26.68,25.23A96.13,96.13,0,0,1,243.67,40.25Z"/><path class="cls-1" d="M208.54,85.83a96.83,96.83,0,0,1,29.52-41.34,89.07,89.07,0,0,0-24.82-18.17,89.55,89.55,0,0,0-32.06,45.8A96.42,96.42,0,0,1,208.54,85.83Z"/><path class="cls-1" d="M355.5,136.62a89.61,89.61,0,0,0-19.43-60.09,89.63,89.63,0,0,0-59.57,43.23,97,97,0,0,1,18.35,29.07A96.8,96.8,0,0,1,355.5,136.62Z"/><path class="cls-1" d="M209.76,148.36a96.84,96.84,0,0,1,19.42-29.89,89.63,89.63,0,0,0-58.83-41.94,89.6,89.6,0,0,0-19.44,60A96.8,96.8,0,0,1,209.76,148.36Z"/><path class="cls-1" d="M251.81,108.53A89.53,89.53,0,0,0,215.36,152a96,96,0,0,1,30.29,32.59,89.25,89.25,0,0,1,6.69,14.92A88.69,88.69,0,0,1,259,184.68l0-.06A96.36,96.36,0,0,1,274.69,164a95.33,95.33,0,0,1,13.78-11.39A89.53,89.53,0,0,0,251.81,108.53Z"/><path class="cls-1" d="M252.1,237.14a85.3,85.3,0,0,1-10.75,13.63v20.86h21V250.25A74.61,74.61,0,0,1,252.1,237.14Z"/><path class="cls-2" d="M292.58,186.83a44.55,44.55,0,0,1,38,21.46c.54,1.08,1.13,2.14,1.75,3.14a38.6,38.6,0,0,0,62.61,4.32,76,76,0,0,1-72.52,53.13c-1.29,0-2.64,0-4.13-.12a76.08,76.08,0,0,1-60.14-35.36L252.19,224l-5.92,9.37a76.08,76.08,0,0,1-60.14,35.35c-1.2.06-2.51.09-4.13.09a76,76,0,0,1-72.51-53.08,38.6,38.6,0,0,0,62.61-4.33c.62-1,1.21-2.05,1.75-3.14a44.55,44.55,0,0,1,38-21.46,44,44,0,0,1,34.88,17l5.51,7,5.51-7a44,44,0,0,1,34.88-17"/><path class="cls-1" d="M166.55,207.74a31.5,31.5,0,0,0,1.54-2.8,51.27,51.27,0,0,1,71.79-17,89.19,89.19,0,0,0-98.47-42.66,89.5,89.5,0,0,0,14.38,73A31.91,31.91,0,0,0,166.55,207.74Z"/><path class="cls-1" d="M293,179.83a51.27,51.27,0,0,1,44.11,25.11,31.56,31.56,0,0,0,1.54,2.8,31.9,31.9,0,0,0,10.92,10.67A89.56,89.56,0,0,0,364,145.26a89.2,89.2,0,0,0-98.35,42.47A51,51,0,0,1,293,179.83Z"/><path class="cls-3" d="M0,338.68H39.37C73.79,338.68,96,361.5,96,397.07s-22.25,58.38-56.67,58.38H0Zm38.6,99.08c24.53,0,37.65-15.78,37.65-40.7,0-25.1-13.12-40.89-37.65-40.89H19.78v81.58Z"/><path class="cls-3" d="M159.36,401.44c0-9.51-7.61-15-19.4-15-9.13,0-16.54,2.85-23.39,7.42v-17.5c5.52-4,16.16-7.23,26.81-7.23,21.87,0,34.23,11.79,34.23,31v55.34H159.36V450.7c-2.85,2.85-11.22,6.28-20.73,6.28-17.31,0-31.57-10.27-31.57-27.58,0-16,14.26-27.19,32.9-27.19,7.61,0,16,2.66,19.4,5.13Zm0,24.53c-2.09-5.32-9.51-8.56-17.12-8.56-8.56,0-17.5,3.61-17.5,12,0,8.56,8.94,12.17,17.5,12.17,7.61,0,15-3.23,17.12-8.56Z"/><path class="cls-3" d="M216.79,487.78h-19V371h19v7.23c3.8-4.75,12.17-9.13,21.49-9.13,24.72,0,39.17,20.54,39.17,44.12S263,457.35,238.28,457.35c-9.32,0-17.69-4.37-21.49-9.13Zm0-58.57A20.5,20.5,0,0,0,235,440.43c14.64,0,23.39-11.6,23.39-27.19S249.69,386,235,386a20.5,20.5,0,0,0-18.26,11.22Z"/><path class="cls-3" d="M313,487.78H294V371h19v7.23c3.8-4.75,12.17-9.13,21.49-9.13,24.72,0,39.17,20.54,39.17,44.12s-14.45,44.12-39.17,44.12c-9.32,0-17.69-4.37-21.49-9.13Zm0-58.57a20.5,20.5,0,0,0,18.26,11.22c14.64,0,23.39-11.6,23.39-27.19S345.91,386,331.27,386A20.5,20.5,0,0,0,313,397.26Z"/><path class="cls-3" d="M404.48,417.42C405.81,434,417,441,430.53,441c9.51,0,16.16-2.28,24.15-7.8v16.74c-7.23,5.32-16.16,7.42-26.81,7.42C403.15,457.35,386,440.62,386,414c0-26.43,16.16-44.88,38.79-44.88,23.39,0,35.56,16.73,35.56,41.46v6.85ZM405.62,403h36.7c-.57-10.27-6.47-17.88-17.31-17.88C416.65,385.09,408.47,390,405.62,403Z"/><path class="cls-3" d="M525.61,390.22c-2.66-1.9-7.23-2.85-11.22-2.85-7.8,0-15,4.37-16.93,13.5v54.58h-19V371h19v8.75c3.23-6.28,10.65-10.65,18.83-10.65,4.18,0,8,.76,9.32,1.52Z"/></g></g></svg>
